src/next/cmd/sc_outlinebullet.svg

<svg height="16" viewBox="0 0 4.2333333 4.2333335" width="16" xmlns="http://www.w3.org/2000/svg" xmlns:xlink="http://www.w3.org/1999/xlink"><linearGradient id="a" gradientUnits="userSpaceOnUse" x1="102.30765" x2="106.01008" y1="39.141762" y2="209.45338"><stop offset="0" stop-color="#99999c"/><stop offset=".5" stop-color="#9c9ca1"/><stop offset="1" stop-color="#cdcdd1"/></linearGradient><linearGradient id="b" gradientUnits="userSpaceOnUse" x1="78.610847" x2="120.3435" y1="88.852417" y2="111.54715"><stop offset="0" stop-color="#fff"/><stop offset="1" stop-color="#ccc"/></linearGradient><linearGradient id="c" gradientUnits="userSpaceOnUse" x1="88.38102" x2="130.48599" y1="1008.9966" y2="1015.6953"><stop offset="0" stop-color="#7b7b7b"/><stop offset="1" stop-color="#797979" stop-opacity="0"/></linearGradient><clipPath id="d"><path d="m41.355614 933.74432h83.943996v117.52168h-83.943996z"/></clipPath><filter id="e" color-interpolation-filters="sRGB" height="1.073732" width="1.13754" x="-.06877" y="-.036866"><feGaussianBlur stdDeviation="1.0557314"/></filter><linearGradient id="f" gradientUnits="userSpaceOnUse" x1="98.40847" x2="115.25523" y1="30.758501" y2="77.140503"><stop offset="0" stop-color="#fff" stop-opacity=".683453"/><stop offset="1" stop-color="#fff" stop-opacity="0"/></linearGradient><linearGradient id="g" gradientTransform="matrix(.58291629 0 0 .66676377 62.177025 -566.68964)" gradientUnits="userSpaceOnUse" x1="63.011921" x2="63.011921" y1="945.89801" y2="1033.1569"><stop offset="0" stop-color="#545454" stop-opacity=".988"/><stop offset="1" stop-color="#ebebeb"/></linearGradient><linearGradient id="h" gradientTransform="matrix(.48045402 0 0 .66178602 128.73476 -578.51587)" gradientUnits="userSpaceOnUse" x1="-60.535713" x2="-60.357143" y1="979.50507" y2="1009.505"><stop offset="0" stop-color="#979797"/><stop offset=".148461" stop-color="#f6f6f6"/><stop offset=".28399727" stop-color="#e2e2e2"/><stop offset=".41198727" stop-color="#dedede"/><stop offset=".41198727" stop-color="#f6f6f6"/><stop offset="1" stop-color="#6b6b6b"/></linearGradient><linearGradient id="i" gradientTransform="matrix(.480454 0 0 .58309338 128.76683 499.76645)" gradientUnits="userSpaceOnUse" x1="-61.078979" x2="-60.6413" y1="-1056.658" y2="-1010.9131"><stop offset="0" stop-color="#777"/><stop offset=".18176934" stop-color="#a8a8a8"/><stop offset=".22864534" stop-color="#cdcdcd"/><stop offset=".34561315" stop-color="#f7f7f7"/><stop offset="1" stop-color="#fff"/></linearGradient><linearGradient id="j" gradientUnits="userSpaceOnUse" x1="7.093015" x2="7.093015" y1="-274.818525" y2="-268.055367"><stop offset="0" stop-color="#06f"/><stop offset="1" stop-color="#80b3ff"/></linearGradient><g fill="#404040" fill-opacity=".839216" transform="matrix(-.125 0 0 .125 0 -32.89166)"><path d="m-31.856726 269.48331h17.04006v2.116696h-17.04006z"/><path d="m-27.516666 273.71664h12.699999v2.116692h-12.699999z"/><path d="m-31.856724 284.29999h17.04006v2.116696h-17.04006z"/><path d="m-27.516665 288.53333h12.699999v2.116692h-12.699999z"/></g><g transform="matrix(.125 0 0 .125 .027155 -32.911224)"><circle cx="6.63171" cy="-272.99435" fill="none" r="1.470957" stroke="url(#j)" stroke-linecap="round" stroke-linejoin="round" stroke-width="5.88383" transform="scale(1 -1)"/><circle cx="6.63171" cy="272.99435" fill="#bfd9ff" r="1.470957"/></g><g transform="matrix(.125 0 0 .125 .02905 -31.059139)"><circle cx="6.63171" cy="-272.99435" fill="none" r="1.470957" stroke="url(#j)" stroke-linecap="round" stroke-linejoin="round" stroke-width="5.88383" transform="scale(1 -1)"/><circle cx="6.63171" cy="272.99435" fill="#bfd9ff" r="1.470957"/></g><g transform="matrix(.03573107 0 0 .03573107 -.34827 -.340244)"><path d="m68.985809 46.546616h59.012391v81.453444h-59.012391z" fill="url(#a)"/><path d="m76.390663 53.951469h44.429127v66.643681h-44.429127z" fill="url(#b)"/><path clip-path="url(#d)" d="m92.81509 1029.6319c1.071428 1.4286 10.71429 15.3572 11.78571 13.5715 1.07143-1.7858 26.42857-25.3572 25-26.7858-1.42857-1.4285-33.928567-41.78567-33.928567-41.78567z" fill="url(#c)" fill-rule="evenodd" filter="url(#e)" opacity=".68" transform="matrix(.69309305 0 0 .69309305 41.153912 -600.6251)"/><path d="m72 48v48c14.790777-17.220934 34.04067-23.231931 48-25.4375v-22.5625z" fill="url(#f)" fill-rule="evenodd" transform="matrix(.92560668 0 0 .92560668 9.746984 9.522348)"/><path d="m83.795517 65.058746h29.619413v48.131544h-29.619413z" fill="url(#g)"/><path d="m87.497948 68.761177h22.214562v40.726693h-22.214562z" fill="#535353"/><path d="m91.200371 72.4636h14.809709v14.809709h-14.809709z" fill="url(#h)"/><path d="m91.200371-116.89272h14.809719v29.619408h-14.809719z" fill="url(#i)" transform="scale(1 -1)"/></g></svg>

<?xml version="1.0" encoding="UTF-8" standalone="no"?>
<svg
   xmlns:dc="http://purl.org/dc/elements/1.1/"
   xmlns:cc="http://creativecommons.org/ns#"
   xmlns:rdf="http://www.w3.org/1999/02/22-rdf-syntax-ns#"
   xmlns:svg="http://www.w3.org/2000/svg"
   xmlns="http://www.w3.org/2000/svg"
   xmlns:sodipodi="http://sodipodi.sourceforge.net/DTD/sodipodi-0.dtd"
   xmlns:inkscape="http://www.inkscape.org/namespaces/inkscape"
   height="16"
   viewBox="0 0 4.2333333 4.2333335"
   width="16"
   version="1.1"
   id="svg29"
   sodipodi:docname="sc_outlinebullet.svg"
   inkscape:version="0.92.4 (unknown)"
   inkscape:export-filename="/home/rizmut/Dokumen/Rizmut/Github/libreoffice-style-karasa-jaga/build/next/cmd/sc_outlinebullet.png"
   inkscape:export-xdpi="96"
   inkscape:export-ydpi="96">
  <metadata
     id="metadata35">
    <rdf:RDF>
      <cc:Work
         rdf:about="">
        <dc:format>image/svg+xml</dc:format>
        <dc:type
           rdf:resource="http://purl.org/dc/dcmitype/StillImage" />
        <dc:title></dc:title>
      </cc:Work>
    </rdf:RDF>
  </metadata>
  <defs
     id="defs33">
    <linearGradient
       id="b"
       gradientUnits="userSpaceOnUse"
       x1="102.30765"
       x2="106.01008"
       y1="39.141762"
       y2="209.45338">
      <stop
         offset="0"
         stop-color="#99999c"
         id="stop2044" />
      <stop
         offset=".5"
         stop-color="#9c9ca1"
         id="stop2046" />
      <stop
         offset="1"
         stop-color="#cdcdd1"
         id="stop2048" />
    </linearGradient>
    <linearGradient
       id="c"
       gradientUnits="userSpaceOnUse"
       x1="78.610847"
       x2="120.3435"
       y1="88.852417"
       y2="111.54715">
      <stop
         offset="0"
         stop-color="#fff"
         id="stop2051" />
      <stop
         offset="1"
         stop-color="#ccc"
         id="stop2053" />
    </linearGradient>
    <linearGradient
       id="d"
       gradientUnits="userSpaceOnUse"
       x1="88.38102"
       x2="130.48599"
       y1="1008.9966"
       y2="1015.6953">
      <stop
         offset="0"
         stop-color="#7b7b7b"
         id="stop2056" />
      <stop
         offset="1"
         stop-color="#797979"
         stop-opacity="0"
         id="stop2058" />
    </linearGradient>
    <clipPath
       id="e">
      <path
         inkscape:connector-curvature="0"
         d="M 41.355614,933.74432 H 125.29961 V 1051.266 H 41.355614 Z"
         id="path2061" />
    </clipPath>
    <filter
       style="color-interpolation-filters:sRGB"
       id="f"
       height="1.073732"
       width="1.13754"
       x="-0.068769999"
       y="-0.036866002">
      <feGaussianBlur
         stdDeviation="1.0557314"
         id="feGaussianBlur2064" />
    </filter>
    <linearGradient
       id="g"
       gradientUnits="userSpaceOnUse"
       x1="98.40847"
       x2="115.25523"
       y1="30.758501"
       y2="77.140503">
      <stop
         offset="0"
         stop-color="#fff"
         stop-opacity=".683453"
         id="stop2067" />
      <stop
         offset="1"
         stop-color="#fff"
         stop-opacity="0"
         id="stop2069" />
    </linearGradient>
    <linearGradient
       id="h"
       gradientTransform="matrix(0.58291629,0,0,0.66676377,62.177025,-566.68964)"
       gradientUnits="userSpaceOnUse"
       x1="63.011921"
       x2="63.011921"
       y1="945.89801"
       y2="1033.1569">
      <stop
         offset="0"
         stop-color="#545454"
         stop-opacity=".988"
         id="stop2072" />
      <stop
         offset="1"
         stop-color="#ebebeb"
         id="stop2074" />
    </linearGradient>
    <linearGradient
       id="i"
       gradientTransform="matrix(0.48045402,0,0,0.66178602,128.73476,-578.51587)"
       gradientUnits="userSpaceOnUse"
       x1="-60.535713"
       x2="-60.357143"
       y1="979.50507"
       y2="1009.505">
      <stop
         offset="0"
         stop-color="#979797"
         id="stop2077" />
      <stop
         offset=".148461"
         stop-color="#f6f6f6"
         id="stop2079" />
      <stop
         offset=".28399727"
         stop-color="#e2e2e2"
         id="stop2081" />
      <stop
         offset=".41198727"
         stop-color="#dedede"
         id="stop2083" />
      <stop
         offset=".41198727"
         stop-color="#f6f6f6"
         id="stop2085" />
      <stop
         offset="1"
         stop-color="#6b6b6b"
         id="stop2087" />
    </linearGradient>
    <linearGradient
       id="j"
       gradientTransform="matrix(0.480454,0,0,0.58309338,128.76683,499.76645)"
       gradientUnits="userSpaceOnUse"
       x1="-61.078979"
       x2="-60.6413"
       y1="-1056.658"
       y2="-1010.9131">
      <stop
         offset="0"
         stop-color="#777"
         id="stop2090" />
      <stop
         offset=".18176934"
         stop-color="#a8a8a8"
         id="stop2092" />
      <stop
         offset=".22864534"
         stop-color="#cdcdcd"
         id="stop2094" />
      <stop
         offset=".34561315"
         stop-color="#f7f7f7"
         id="stop2096" />
      <stop
         offset="1"
         stop-color="#fff"
         id="stop2098" />
    </linearGradient>
  </defs>
  <sodipodi:namedview
     pagecolor="#ffffff"
     bordercolor="#666666"
     borderopacity="1"
     objecttolerance="10"
     gridtolerance="10"
     guidetolerance="10"
     inkscape:pageopacity="0"
     inkscape:pageshadow="2"
     inkscape:window-width="640"
     inkscape:window-height="480"
     id="namedview31"
     showgrid="false"
     inkscape:zoom="14.875"
     inkscape:cx="1.7867996"
     inkscape:cy="4.0479876"
     inkscape:current-layer="svg29" />
  <linearGradient
     id="a"
     gradientUnits="userSpaceOnUse"
     x1="7.093015"
     x2="7.093015"
     y1="-274.818525"
     y2="-268.055367">
    <stop
       offset="0"
       stop-color="#06f"
       id="stop2" />
    <stop
       offset="1"
       stop-color="#80b3ff"
       id="stop4" />
  </linearGradient>
  <g
     id="g2835">
    <g
       id="g853">
      <g
         fill="#404040"
         fill-opacity=".839216"
         transform="matrix(-.125 0 0 .125 0 -32.89166)"
         id="g15">
        <path
           d="m-31.856726 269.48331h17.04006v2.116696h-17.04006z"
           id="path7" />
        <path
           d="m-27.516666 273.71664h12.699999v2.116692h-12.699999z"
           id="path9" />
        <path
           d="m-31.856724 284.29999h17.04006v2.116696h-17.04006z"
           id="path11" />
        <path
           d="m-27.516665 288.53333h12.699999v2.116692h-12.699999z"
           id="path13" />
      </g>
      <g
         transform="matrix(.125 0 0 .125 .027155 -32.911224)"
         id="g21">
        <circle
           cx="6.63171"
           cy="-272.99435"
           fill="none"
           r="1.470957"
           stroke="url(#a)"
           stroke-linecap="round"
           stroke-linejoin="round"
           stroke-width="5.88383"
           transform="scale(1 -1)"
           id="circle17" />
        <circle
           cx="6.63171"
           cy="272.99435"
           fill="#bfd9ff"
           r="1.470957"
           id="circle19" />
      </g>
      <g
         transform="matrix(.125 0 0 .125 .02905 -31.059139)"
         id="g27">
        <circle
           cx="6.63171"
           cy="-272.99435"
           fill="none"
           r="1.470957"
           stroke="url(#a)"
           stroke-linecap="round"
           stroke-linejoin="round"
           stroke-width="5.88383"
           transform="scale(1 -1)"
           id="circle23" />
        <circle
           cx="6.63171"
           cy="272.99435"
           fill="#bfd9ff"
           r="1.470957"
           id="circle25" />
      </g>
    </g>
    <g
       id="g2123"
       transform="matrix(0.03573107,0,0,0.03573107,-0.34827028,-0.34024371)">
      <path
         id="path2107"
         d="M 68.985809,46.546616 H 127.9982 V 128.00006 H 68.985809 Z"
         inkscape:connector-curvature="0"
         style="fill:url(#b)" />
      <path
         id="path2109"
         d="M 76.390663,53.951469 H 120.81979 V 120.59515 H 76.390663 Z"
         inkscape:connector-curvature="0"
         style="fill:url(#c)" />
      <path
         id="path2111"
         transform="matrix(0.69309305,0,0,0.69309305,41.153912,-600.6251)"
         d="m 92.81509,1029.6319 c 1.071428,1.4286 10.71429,15.3572 11.78571,13.5715 1.07143,-1.7858 26.42857,-25.3572 25,-26.7858 -1.42857,-1.4285 -33.928567,-41.78567 -33.928567,-41.78567 z"
         clip-path="url(#e)"
         inkscape:connector-curvature="0"
         style="opacity:0.68000022;fill:url(#d);fill-rule:evenodd;filter:url(#f)" />
      <path
         id="path2113"
         transform="matrix(0.92560668,0,0,0.92560668,9.746984,9.522348)"
         d="M 72,48 V 96 C 86.790777,78.779066 106.04067,72.768069 120,70.5625 V 48 Z"
         inkscape:connector-curvature="0"
         style="fill:url(#g);fill-rule:evenodd" />
      <path
         id="path2115"
         d="M 83.795517,65.058746 H 113.41493 V 113.19029 H 83.795517 Z"
         inkscape:connector-curvature="0"
         style="fill:url(#h)" />
      <path
         id="path2117"
         d="M 87.497948,68.761177 H 109.71251 V 109.48787 H 87.497948 Z"
         inkscape:connector-curvature="0"
         style="fill:#535353" />
      <path
         id="path2119"
         d="M 91.200371,72.4636 H 106.01008 V 87.273309 H 91.200371 Z"
         inkscape:connector-curvature="0"
         style="fill:url(#i)" />
      <path
         id="path2121"
         transform="scale(1,-1)"
         d="m 91.200371,-116.89272 h 14.809719 v 29.619408 H 91.200371 Z"
         inkscape:connector-curvature="0"
         style="fill:url(#j)" />
    </g>
  </g>
</svg>
